Pods/ProtonCore-UIFoundations/libraries/UIFoundations/Sources/Assets.xcassets/Images/IconSet/ic-printer.imageset/ic-printer.svg

<svg width="24" height="24" viewBox="0 0 24 24" fill="none" xmlns="http://www.w3.org/2000/svg">
<path fill-rule="evenodd" clip-rule="evenodd" d="M6.75 3.74056C6.75 3.32664 7.08579 2.9911 7.5 2.9911H13.705C13.881 2.9911 14.0515 3.05298 14.1864 3.16591L17.0496 5.56138C17.2198 5.70378 17.3182 5.91421 17.3182 6.13602V6.91198H6.75V3.74056ZM5.25 6.91198V3.74056C5.25 2.49882 6.25736 1.49219 7.5 1.49219H13.705C14.2331 1.49219 14.7444 1.67784 15.1494 2.01663L18.0126 4.4121C18.5232 4.83929 18.8182 5.47057 18.8182 6.13602V6.91198H19.8C21.2912 6.91198 22.5 8.11994 22.5 9.61002V16.8363C22.5 18.3264 21.2912 19.5344 19.8 19.5344H18.75V21.7433C18.75 22.5711 18.0784 23.2422 17.25 23.2422L6.75 23.2422C5.92157 23.2422 5.25 22.5711 5.25 21.7433V19.5344H4.2C2.70883 19.5344 1.5 18.3264 1.5 16.8363V9.61002C1.5 8.11994 2.70883 6.91198 4.2 6.91198H5.25ZM19.8 18.0355H18.75V15.0771V14.3276H18L6 14.3276H5.25V15.0771L5.25 18.0355H4.2C3.53726 18.0355 3 17.4986 3 16.8363V9.61002C3 8.94776 3.53726 8.41089 4.2 8.41089H19.8C20.4627 8.41089 21 8.94776 21 9.61002V16.8363C21 17.4986 20.4627 18.0355 19.8 18.0355ZM6.75 21.7433L17.25 21.7433V15.8265L6.75 15.8265L6.75 21.7433ZM18.75 11.3693C18.75 11.7788 18.4142 12.1108 18 12.1108C17.5858 12.1108 17.25 11.7788 17.25 11.3693C17.25 10.9597 17.5858 10.6277 18 10.6277C18.4142 10.6277 18.75 10.9597 18.75 11.3693ZM15 12.1108C15.4142 12.1108 15.75 11.7788 15.75 11.3693C15.75 10.9597 15.4142 10.6277 15 10.6277C14.5858 10.6277 14.25 10.9597 14.25 11.3693C14.25 11.7788 14.5858 12.1108 15 12.1108Z" fill="#0C0C14"/>
</svg>

<svg xmlns="http://www.w3.org/2000/svg" width="24" height="24" viewBox="0 0 24 24">
  <g class="ic-printer">
    <path fill-rule="evenodd" d="M6.75 3.74a.75.75 0 0 1 .75-.749h6.205a.75.75 0 0 1 .481.175L17.05 5.56a.75.75 0 0 1 .268.575v.776H6.75v-3.17Zm-1.5 3.172V3.741A2.25 2.25 0 0 1 7.5 1.492h6.205c.528 0 1.04.186 1.444.525l2.864 2.395a2.25 2.25 0 0 1 .805 1.724v.776h.982a2.7 2.7 0 0 1 2.7 2.698v7.226a2.699 2.699 0 0 1-2.7 2.698h-1.05v2.21a1.5 1.5 0 0 1-1.5 1.498H6.75a1.5 1.5 0 0 1-1.5-1.499v-2.209H4.2a2.7 2.7 0 0 1-2.7-2.698V9.61a2.699 2.699 0 0 1 2.7-2.698h1.05ZM19.8 18.035h-1.05v-3.708H5.25v3.708H4.2A1.2 1.2 0 0 1 3 16.836V9.61a1.2 1.2 0 0 1 1.2-1.2h15.6a1.2 1.2 0 0 1 1.2 1.2v7.226a1.2 1.2 0 0 1-1.2 1.2ZM6.75 21.743h10.5v-5.916H6.75v5.916Zm12-10.374c0 .41-.336.742-.75.742a.746.746 0 0 1-.75-.742c0-.41.336-.741.75-.741s.75.332.75.741Zm-3.75.742c.414 0 .75-.332.75-.742a.746.746 0 0 0-.75-.741.746.746 0 0 0-.75.741c0 .41.336.742.75.742Z" class="Icon"/>
  </g>
</svg>
